!!!COM: Palestrina, Giovanni Perluigi da
!!!OPR: Quinti toni
!!!OTL: Benedictus
**kern	**kern	**kern	**kern
*Itenor	*Icalto	*Icant	*Icant
!Tenor	!Altus	!Cantus 2	!Cantus 1
*clefGv2	*clefG2	*clefG2	*clefG2
*k[b-]	*k[b-]	*k[b-]	*k[b-]
*F:ion	*F:ion	*F:ion	*F:ion
*M4/2	*M4/2	*M4/2	*M4/2
=1	=1	=1	=1
0f	1r	0r	0r
.	[1cc	.	.
=2	=2	=2	=2
1e	1cc]	0r	0r
1d	1b-	.	.
=3	=3	=3	=3
2c	1a	0r	0r
2A	.	.	.
[1c	2g	.	.
.	2e	.	.
=4	=4	=4	=4
2c]	1.g	0r	0r
4B-	.	.	.
4A	.	.	.
2G	.	.	.
2A	4f	.	.
.	4e	.	.
=5	=5	=5	=5
4B-	4d	0r	0ff
4c	4e	.	.
4d	4f	.	.
4e	4g	.	.
4f	4a	.	.
4g	4g	.	.
[2a	4f	.	.
.	4g	.	.
=6	=6	=6	=6
4a]	4a	0r	1ee
8g	4b-	.	.
8f	.	.	.
2e	1cc	.	.
2f	.	.	1dd
2g	2b	.	.
=7	=7	=7	=7
2c	2.cc	0r	2cc
1f	.	.	2a
.	4b-	.	.
.	2a	.	[1cc
4e	4g	.	.
4d	4f	.	.
=8	=8	=8	=8
2c	2e	0r	2cc]
1e-	1g	.	4b-
.	.	.	4a
.	.	.	2g
4d	4f	.	2a
4c	4e-	.	.
=9	=9	=9	=9
2.B-	2.d	0ff	1b-
4c	4e	.	.
1d	4f	.	2.a
.	4g	.	.
.	4a	.	.
.	4f	.	4b-
=10	=10	=10	=10
2.c	2g	1ee	1cc
.	1a	.	.
8B-	.	.	.
8A	.	.	.
1B-	.	1dd	1r
.	2g	.	.
=11	=11	=11	=11
2F	1a	2cc	0ff
2F	.	2a	.
2A	1r	2cc	.
2B-	.	4b-	.
.	.	4a	.
=12	=12	=12	=12
1c	2r	2g	1ee
.	2c	2a	.
1B-	4d	2.b-	1dd
.	4e	.	.
.	4f	.	.
.	4d	4a	.
=13	=13	=13	=13
2c	2e	2g	2cc
2d	1f	2f	2a
1c	.	1g	[1cc
.	2e	.	.
=14	=14	=14	=14
0r	2f	2a	2cc]
.	2d	2dd	4b-
.	.	.	4a
.	2e	2cc	2g
.	2f	2cc	2a
=15	=15	=15	=15
0r	2.B-	2dd	4b-
.	.	.	4cc
.	.	2.ff	4dd
.	4c	.	4ee
.	4d	.	2.ff
.	4e	4ee	.
.	2f	4dd	.
.	.	4cc	4ee
=16	=16	=16	=16
0r	2g	2b	2dd
.	2a	1cc	2cc
.	1g	.	1dd
.	.	2b	.
=17	=17	=17	=17
2r	1c	2cc	0cc
2c	.	2g	.
2.f	1r	2.a	.
4f	.	4a	.
=18	=18	=18	=18
2e	0r	2g	2r
2.f	.	1a	2cc
.	.	.	2.ff
4e	.	.	.
2d	.	2a	.
.	.	.	4ff
=19	=19	=19	=19
2c	2r	1a	2ee
4d	2f	.	2.ff
4c	.	.	.
4B-	2.b-	1r	.
4c	.	.	4ee
4d	.	.	2dd
4e	4b-	.	.
=20	=20	=20	=20
2f	2a	0r	2cc
4B-	2.b-	.	2.dd
4A	.	.	.
4G	.	.	.
4A	4a	.	4cc
4B-	2g	.	2b-
4c	.	.	.
=21	=21	=21	=21
2d	2f	0r	2a
2G	2.g	.	2.b-
1d	.	.	.
.	4f	.	4a
.	[2f	.	4a
.	.	.	8g
.	.	.	8f
=22	=22	=22	=22
1c	4f]	2r	2g
.	4e	.	.
.	4e	2cc	1cc
.	8d	.	.
.	8c	.	.
1r	2d	2.ff	.
.	2d	.	2b-
.	.	4ff	.
=23	=23	=23	=23
2r	1c	2ee	4cc
.	.	.	4b-
2F	.	2.ff	4a
.	.	.	4g
2.B-	1r	.	[1f
.	.	4ee	.
.	.	2dd	.
4B-	.	.	.
=24	=24	=24	=24
2A	2r	2cc	1f]
2.B-	2f	2.dd	.
.	2.b-	.	1r
4A	.	4cc	.
2G	.	4dd	.
.	4b-	4ee	.
=25	=25	=25	=25
2F	2a	4ff	0r
.	.	4ee	.
2.G	2.b-	4dd	.
.	.	4cc	.
.	.	2.dd	.
4A	4a	.	.
4B-	2g	.	.
4c	.	8cc	.
.	.	8b-	.
=26	=26	=26	=26
2d	2f	2a	0r
4G	2g	1dd	.
4A	.	.	.
4B-	4d	.	.
4c	4e	.	.
4d	4f	2dd	.
4e	4g	.	.
=27	=27	=27	=27
2.f	4a	4cc	2r
.	4b-	4b-	.
.	1cc	4a	2cc
4e	.	4g	.
1d	.	1f	2.ff
.	2b-	.	.
.	.	.	4ff
=28	=28	=28	=28
2c	2cc	2r	2ee
2f	2a	2cc	2.ff
1B-	1b-	2.ff	.
.	.	.	4ee
.	.	.	2dd
.	.	4ff	.
=29	=29	=29	=29
2r	2r	2ee	2cc
2B-	2f	2.ff	2.dd
4B-	2.b-	.	.
4c	.	4ee	4ee
4d	.	2dd	[2ff
4e	4b-	.	.
=30	=30	=30	=30
2f	2a	2cc	4ff]
.	.	.	4ee
2B-	2.b-	2.dd	4dd
.	.	.	4cc
4G	.	.	2b-
4A	4a	4cc	.
4B-	2g	2b-	2dd
4c	.	.	.
=31	=31	=31	=31
2d	2f	2a	2dd
2e-	2.g	2g	2cc
2d	.	2a	1dd
.	4f	.	.
2B-	[2f	2b-	.
=32	=32	=32	=32
0c	2f]	0g	1.cc
.	4e	.	.
.	4d	.	.
.	1e	.	.
.	.	.	2b-
=33	=33	=33	=33
1.F	1.f	1.cc	1a
.	.	.	1a
2F	2f	2cc	.
=34	=34	=34	=34
0c	0e	0cc	0g
*-	*-	*-	*-
!! Hosanna
**kern	**kern	**kern	**kern	**kern	**kern
*Ibass	*Itenor	*Itenor	*Icalto	*Icant	*Icant
!Bassus	!Tenor 2	!Tenor 1	!Altus	!Cantus 2	!Cantus 1
*clefF4	*clefGv2	*clefGv2	*clefG2	*clefG2	*clefG2
*k[b-]	*k[b-]	*k[b-]	*k[b-]	*k[b-]	*k[b-]
*F:ion	*F:ion	*F:ion	*F:ion	*F:ion	*F:ion
*M4/2	*M4/2	*M4/2	*M4/2	*M4/2	*M4/2
=35	=35	=35	=35	=35	=35
1r	0r	1c	1g	1r	0r
1G	.	2g	2b-	1dd	.
.	.	2g	2b-	.	.
=36	=36	=36	=36	=36	=36
2d	0r	2f	2a	2ff	0r
2d	.	2d	2f	2ff	.
1c	.	1e	4g	2ee	.
.	.	.	4f	.	.
.	.	.	4g	2cc	.
.	.	.	4a	.	.
=37	=37	=37	=37	=37	=37
1B-	0r	1f	1b-	4dd	0r
.	.	.	.	4cc	.
.	.	.	.	4dd	.
.	.	.	.	4ee	.
1d	.	1f	2.a	[1ff	.
.	.	.	4b-	.	.
=38	=38	=38	=38	=38	=38
2c	0r	1g	2cc	2ff]	2r
2c	.	.	2c	2ee	2g
2G	.	2g	2.d	4dd	2b-
.	.	.	.	4b-	.
2B-	.	[2f	.	[2dd	2b-
.	.	.	4e	.	.
=39	=39	=39	=39	=39	=39
2F	0r	4f]	1f	4dd]	2a
.	.	4e	.	4cc	.
2A	.	2c	.	1cc	2f
[1G	.	1d	1r	.	[1g
.	.	.	.	4b	.
.	.	.	.	4a	.
=40	=40	=40	=40	=40	=40
1G]	1d	1r	0r	1b	1g]
1F	2f	1A	.	[1cc	1a
.	2f	.	.	.	.
=41	=41	=41	=41	=41	=41
1C	2e	2c	2r	1cc]	1g
.	2c	2c	2g	.	.
1r	4d	2B-	2b-	2r	1r
.	4c	.	.	.	.
.	4d	2G	2b-	2dd	.
.	4e	.	.	.	.
=42	=42	=42	=42	=42	=42
0r	1f	1d	2a	2dd	2r
.	.	.	2f	2dd	2a
.	1e	2c	4g	2ee	2cc
.	.	.	4f	.	.
.	.	2c	4g	2ee	2cc
.	.	.	4a	.	.
=43	=43	=43	=43	=43	=43
0r	0d	4G	1b-	1gg	1.dd
.	.	4A	.	.	.
.	.	4B-	.	.	.
.	.	4c	.	.	.
.	.	4d	2a	1ff	.
.	.	4e	.	.	.
.	.	[2f	4g	.	2b-
.	.	.	4f	.	.
=44	=44	=44	=44	=44	=44
1r	1c	2f]	1g	0r	1cc
.	.	2e	.	.	.
1D	1d	2f	[1f	.	2a
.	.	2F	.	.	2a
=45	=45	=45	=45	=45	=45
2F	2c	2.A	1f]	0r	2a
2F	2.d	.	.	.	2a
.	.	4B-	.	.	.
2E	.	1c	2r	.	2g
.	4c	.	.	.	.
2C	[2c	.	2e	.	2g
=46	=46	=46	=46	=46	=46
0D	2c]	0F	2f	2r	0dd
.	4B	.	2f	2dd	.
.	4A	.	.	.	.
.	1B	.	1d	2ff	.
.	.	.	.	2ff	.
=47	=47	=47	=47	=47	=47
1C	1c	2r	1e	2ee	1g
.	.	2G	.	2cc	.
1BB-	[1F	2B-	1f	4dd	1r
.	.	.	.	4cc	.
.	.	2B-	.	4dd	.
.	.	.	.	4ee	.
=48	=48	=48	=48	=48	=48
1D	1F]	2A	2f	1ff	1a
.	.	2F	2d	.	.
1C	2r	4G	2e	1ee	2cc
.	.	4F	.	.	.
.	2c	4G	2e	.	2cc
.	.	4A	.	.	.
=49	=49	=49	=49	=49	=49
1G	2d	1B-	1g	2.dd	2b-
.	2B-	.	.	.	2g
.	.	.	.	4ee	.
1F	2c	1A	2c	2ff	4a
.	.	.	.	.	4g
.	2c	.	[2f	2f	4a
.	.	.	.	.	4b-
=50	=50	=50	=50	=50	=50
0C	0c	0G	2f]	1g	0cc
.	.	.	4e	.	.
.	.	.	4d	.	.
.	.	.	1e	1g	.
=51	=51	=51	=51	=51	=51
0F	0A	0F	0f	0a	0cc
==	==	==	==	==	==
*-	*-	*-	*-	*-	*-
!!!CDT: 1525/^1526/-1594/2/2
!!!OCY: Italia
!!!AGN: Mass (Free)
!!!AST: renaissance, vocal
!!!ASW: Motet 1532 (Penet)
!!!PWK: Masses, Book 10
!!!RNB: Cadence finals: C
!!!YOR: Le Opere Complete, v. 27, p. 120
!!!YOO: Rome, Italy: Fratelli Scalera
!!!END: 1992//
!!!EED: John Miller
!!!YEC: Copyright 2000, John Miller
!!!YEN: United States of America
!!!YEM: Rights to all derivative electronic formats reserved.
!!!YEM: Refer to licensing agreement for further details.
!!!YEM: This file must be accompanied by the licensing agreement.
!!!YEM: A copy of the licensing agreement may be found at http://www.music-cog.ohio-state.edu/HumdrumDatabases/Palestrina/license.txt
!!!EMD: converted to Humdrum by Bret Aarden
